X:50
T:Shady Willow. JBs.050
T:Constant Billy,aka. JBs.050
R:Jig
S:Jas.Blackshaw MS, 1837, N.Shropshire
Z:Tony Weatherall 2006
M:6/8
L:1/8
Q:3/8=120
A:North Shropshire
K:C
c2 g ecA|f2dB2G|e2cA2d|GAB c3:|!
|:f2g afd|e2fgec|c2a aga|dg^f g3|!
câ€™2g ecA|f2dB2G|e2cA2d|GAB c3:|

